!!!COM: Chopin, Frederic
!!!CDT: 1810///-1849///
!!!OTL: Prelude in G# Minor, Op. 28, No. 12
!!!OPS: Op. 28
!!!ONM: No. 12
!!!OMD: Presto
!!!ODT: 1836///-1839///
!!!PDT: 1839///
!!!ENC: Craig Stuart Sapp
!!!AIN: piano
!!!EEV: 6 April 2001
!!!YEC: Copyright 2001 by Craig Stuart Sapp
!!!YEN: United States of America
**kern	**kern	**kern
*Ipiano	*Ipiano	*Ipiano
*lh	*rh	*rh
*clefF4	*clefG2	*clefG2
*k[f#c#g#d#a#]	*k[f#c#g#d#a#]	*k[f#c#g#d#a#]
*g#:	*g#:	*g#:
*M3/4	*M3/4	*M3/4
*MM204	*MM204	*MM204
4GG#^ 4D#^ 4G#^	4B	8d#
.	.	8e
4GGG#' 4GG#'	4B	8e
.	.	8e#
4DD#' 4D#'	4B 4d#	8e#
.	.	8f#
=2	=2	=2
4GG#^ 4D#^ 4G#^	4B 4d#	8f#
.	.	8f##
4GGG#' 4GG#'	4B 4d#	8f##
.	.	8g#
4DD#' 4D#'	4B 4d#	8g#
.	.	8g##
=3	=3	=3
4D#^ 4G#^ 4B^	4d#	8g##
.	.	8a#
4GGG#' 4GG#'	4d#	8a#
.	.	8b
4DD#' 4D#'	4d# 4g#	8b
.	.	8b#
=4	=4	=4
4D#^ 4G#^ 4B^	4d# 4g#	8b#
.	.	8cc#
4GGG#' 4GG#'	4d# 4g#	8cc#
.	.	8cc##
4DD#' 4D#'	4d# 4g#	8cc##
.	.	8dd#
=5	=5	=5
4D#' 4A#'	4d# 4a#	8dd#
.	.	8ee
4FF##' 4D#'	4a#	8ee
.	.	8dd#
4D#' 4A#'	4d# 4a#	8dd#
.	.	8cc#
=6	=6	=6
4GG#' 4D#'	4d# 4g#	8cc#
.	.	8b
4D#' 4B'	4d# 4g#	8b
.	.	8cc#
4GG#' 4D#'	4d# 4g#	8cc#
.	.	8dd#
=7	=7	=7
4C#' 4G#'	4e 4g#	8dd#
.	.	8cc#
4CC#' 4C#'	4e 4g#	8cc#
.	.	8b
4C#' 4G#'	4c# 4e	8b
.	.	8a#
=8	=8	=8
4D#' 4F##'	4c#	8r
.	.	8b
4DD#' 4D#'	4c#	8b
.	.	8a#
4D#' 4F##'	4c#	8a#
.	.	8d#
=9	=9	=9
4GG#^ 4D#^ 4G#^	4B	8d#
.	.	8e
4GGG#' 4GG#'	4B	8e
.	.	8e#
4DD#' 4D#'	4B 4d#	8e#
.	.	8f#
=10	=10	=10
4GG#^ 4D#^ 4G#^	4B 4d#	8f#
.	.	8f##
4GGG#' 4GG#'	4B 4d#	8f##
.	.	8g#
4DD#' 4D#'	4B 4d#	8g#
.	.	8g##
=11	=11	=11
4GGn^ 4E^ 4Gn^	4B 4e	8g##
.	.	8a#
4GGGn' 4GG'	4B 4e	8a#
.	.	8b
4EE' 4E'	4B 4e	8b
.	.	8b#
=12	=12	=12
4Dn^ 4Gn^ 4Bn^	4fn	8b#
.	.	8cc#
4GGGn' 4GGn'	4f	8cc#
.	.	8cc##
4GG' 4G'	4f 4b	8r
.	.	8cc##
=13	=13	=13
4FF# 4F#	4f# 4b	8dd#
.	.	8ee
4F# 4d#	4f# 4b	8ee
.	.	8dd#
4FF# 4F#	4f# 4b	8dd#
.	.	8ff#
=14	=14	=14
4F# 4e	4f# 4a#	8ff#
.	.	8cc#
4FF# 4F#	4f# 4a#	8cc#
.	.	8dd#
4F# 4e	4f# 4a#	8dd#
.	.	8ee
=15	=15	=15
4FF# 4F#	4f# 4b	8ee
.	.	8dd#
4F# 4D#	4f# 4b	8dd#
.	.	8gg#
4FF# 4F#	4f#	8gg#
.	.	8ff#
=16	=16	=16
4F# 4e	4f# 4a#	8ff#
.	.	8cc#
4FF# 4F#	4e 4a#	8cc#
.	.	8dd#
4F# 4c#	4e 4a#	8dd#
.	.	8ee
=17	=17	=17
4BB 4F#	4d# 4b	8ee
.	.	8dd#
4BB 4F# 4B	4d#	8dd#
.	.	8b
4BB 4Gn 4B	4e	8b
.	.	8gn
=18	=18	=18
4BB 4F# 4B	4d#	8gn
.	.	8f#
4BB 4F# 4B	4d#	8f#
.	.	8b
4BB 4Gn 4B	4e	8b
.	.	8g
=19	=19	=19
4BB 4F# 4B	4d#	8f#
.	.	8b
4E 4Gn 4B	4e	8b
.	.	8gn
4BB 4F# 4B	4d#	8f#
.	.	8b
=20	=20	=20
4E 4Gn 4B	4e	8b
.	.	8gn
4BB 4F# 4B	4dn	8f#
.	.	8b
4E 4G 4B	4e	8b
.	.	8g
=21	=21	=21
4BB^ 4F#^ 4B^	8e 8gn	[2.b
.	8dn 8f#	.
.	8gq	.
4BB' 4B'	8d 8f#	.
.	8c# 8e	.
[4BB 4F#'	4d 4f#	.
=22	=22	=22
4BB] 4F#^ 4B^	8e 8gn	2.b]
.	8dn 8f#	.
.	8gq	.
4BBB' 4BB'	8dn 8f#	.
.	8c# 8e	.
4BB' 4F#'	4d 4f#	.
=23	=23	=23
4E' 4B'	8dn 8f#	4g#
.	8e 8ccn	.
4EE' 4E'	8e 8cc	4g#
.	8d 8b	.
4E' 4B'	8d 8b	4g#
.	8e 8cc	.
=24	=24	=24
4AAn^ 4E^ 4An^	8dn 8fn	2.a
.	8cn 8e	.
.	8fq	.
4AAAn' 4AA'	8c 8e	.
.	8B 8d	.
[4AA 4E	4c 4e	.
=25	=25	=25
4AA] 4E^ 4An^	8dn 8fn	[2.a^
.	8cn 8e	.
.	8fq	.
4AAAn' 4AAn'	8c 8e	.
.	8B 8d	.
[4AA' 4E'	4c 4e	.
=26	=26	=26
4AA] 4E^ 4An^	8dn 8fn	2.a]
.	8cn 8e	.
.	8fq	.
4AAAn' 4AAn'	8c 8e	.
.	8B 8d	.
4AA' 4E'	4c 4e	.
=27	=27	=27
4Dn' 4An'	8cn 8an	4f#
.	8dn 8b	.
.	8eq	.
4DD' 4Dn'	8d 8b	4f#
.	8c 8a	.
4D' 4A'	8c 8a	4f#
.	8d 8b	.
=28	=28	=28
4GGn^ 4Dn^ 4Gn^	8cn 8e	2.g
.	8B 8dn	.
4GGGn' 4GG'	8B 8d	.
.	8An 8c	.
4GG' 4G'	4B 4d	.
=29	=29	=29
4Cn' 4Gn'	4e	8gn
.	.	8an
4C 4G 4cn	4e	8a
.	.	8b
4C 4G 4c	4e	8b
.	.	8ccn
=30	=30	=30
4Cn 4Gn 4cn	4e	8ccn
.	.	8ddn
4C 4F 4c	4e 4an	8dd
.	.	8ee
4BB 4F# 4B	8e 8a	8ee
.	8d#	8dd#
=31	=31	=31
4E 4B	4e	8gn
.	.	8an
4Cn 4Gn 4cn	4e	8a
.	.	8b
4C 4G 4c	4e	8b
.	.	8ccn
=32	=32	=32
4Cn 4Gn 4cn	4e	8ccn
.	.	8ddn
4C [4F# 4c	4e 4an	8dd
.	.	8ee
4BB 4F#] 4B	4a	8ee
.	.	8dd# 8ff#
=33	=33	=33
4E 4B	4gn' 4ee' 4ggn'	4r
4BB 4B	4an	8ee 8ggn
.	.	8dd# 8ff#
4E 4B	4g	8dd# 8ff#
.	.	8ee 8gg
=34	=32	=34
4BB 4B	4an	8ee 8ggn
.	.	8dd# 8ff#
4E 4B	4gn	8dd# 8ff#
.	.	8ee 8gg
4BB 4B	8f## 8ee 8f##	4r
.	8g# 8ee# 8gg#	.
=35	=33	=35
4BBB 4BB	8g# 8ee# 8gg#	2.r
.	8an 8ff# 8aan	.
4E# 4B 4c##	8a 8ff# 8aa	.
.	8g# 8ee# 8gg#	.
4F# 4B 4D#	8g# 8ee# 8gg#	.
.	8a 8ff# 8aa	.
=36	=34	=36
4E# 4B 4c##	8an 8ff# 8aan	2r
.	8g# 8ee# 8gg#	.
4F# 4B 4D#	8g# 8ee# 8gg#	.
.	8a 8ff# 8aa	.
4BBB 4BB	8g## 8gg##	4ff#
.	8a# 8aa#	.
=37	=35	=37
4AAA# 4AA#	4a# 4ff# 4ba#	4r
4F# 4A# 4D#	8ff#	4a# 4aa#
.	8ee# 8gg#	.
4A# 4D# 4f#	8ee# 8gg#	4a#^ 4aa#^
.	8dd# 8ff#	.
=38	=36	=38
4AAA# 4AA#	4a# 4ee# 4gg# 4aa#	4r
4E# 4c##	8ee# 8gg#	4a#^ 4aa#^
.	8dd# 8ff#	.
4A# 4e# 4g#	8dd# 8ff#	4a#^ 4aa#^
.	8cc# 8e#	.
=39	=37	=39
4DD# 4D#	4a# 4dd# 4ff# 4aa#	2.r
*^	*	*
[2d#	4A#	8a# 8ff#	.
.	.	8g# 8ee#	.
.	4d	8g# 8ee#	.
.	.	8f## 8dd#	.
=40	=40	=38	=40
4D#	4d#]	4f## 4dd#	4f##' 4dd#'
*v	*v	*	*
4DD# 4D#	8f#	4a#
.	8en	.
4D# 4c#	8e	4f# 4bn
.	8d#	.
=41	=39	=41
4GG#^ 4D#^ 4G#^	4B	8d#
.	.	8e
4GGG# 4GG#	4B	8e
.	.	8e#
4DD# 4D#	4B 4d#	8e#
.	.	8f#
=42	=39	=42
4GG#^ 4D#^ 4G#^	4B 4d#	8f#
.	.	8f##
4GGG# 4GG#	4B 4d#	8f##
.	.	8g#
4DD# 4D#	4B 4d#	8g#
.	.	8g##
=43	=40	=43
4D#^ 4G#^ 4B^	4d#	8g##
.	.	8a#
4GGG# 4GG#	4d#	8a#
.	.	8b
4DD# 4D#	4d# 4g#	8b
.	.	8b#
=44	=41	=44
4D#^ 4G#^ 4B^	4d# 4g#	8b#
.	.	8cc#
4GGG# 4GG#	4d# 4g#	8cc#
.	.	8cc##
4DD# 4D#	4d# 4g#	8cc##
.	.	8dd#
=45	=42	=45
4D# 4A#	4d# 4a#	8dd#
.	.	8ee
4FF## 4D#	4a#	8ee
.	.	8dd#
4D# 4A#	4d# 4a#	8dd#
.	.	8cc#
=46	=42	=46
4GG# 4D#	4d# 4g#	8cc#
.	.	8b
4D# 4B	4d# 4g#	8b
.	.	8cc#
4GG# 4D#	4d# 4g#	8cc#
.	.	8dd#
=47	=43	=47
4C# 4G#	4e 4g#	8dd#
.	.	8cc#
4CC# 4C#	4e 4g#	8cc#
.	.	8b
4C# 4G#	4c# 4e	8b
.	.	8a#
=48	=45	=48
4D# 4F##	4c#	8r
.	.	8b
4DD# 4D#	4c#	8b
.	.	8a#
4D# 4F##	4c#	8a#
.	.	8d#
=49	=45	=49
4GG#^ 4D#^ 4G#^	4B	8d#
.	.	8e
4GGG# 4GG#	4B	8e
.	.	8e#
4DD# 4D#	4B 4d#	8e#
.	.	8f#
=50	=47	=50
4GG#^ 4D#^ 4G#^	4B 4d#	8f#
.	.	8f##
4FFF# 4FF#	4B 4d#	8f##
.	.	8g#
4FF# 4D#	4B 4d#	8g#
.	.	8g##
=51	=48	=51
4E^ 4G#^	4B 4e	8an
.	.	8a#
4EEE 4EE	4B 4e	8a#
.	.	8b
4E 4G#	4e	8b
.	.	8b#
=52	=49	=52
4D#^ 4G#^ 4Bn^	4d#	8b#
.	.	8cc#
4DDD# 4DD#	4d# 4g#	8cc#
.	.	8cc##
4D# 4G# 4B	4d# 4g#	8cc##
.	.	8dd#
=53	=50	=53
8C#^' 8G#^' 8B^'	8e 8g#	8dd#
8r	8ryy	8cc#
4r	2ryy	8cc#
.	.	8b
4r	.	8b
.	.	8a#
=54	=	=54
8D#^' 8G#^' 8B^'	8d# 8g#	8cc#
8r	8ryy	8b
4r	2ryy	8b
.	.	8a#
4r	.	8a#
.	.	8g#
=55	=51	=55
8C#^' 8G#^' 8B^'	8e 8g#	8dd#
8r	8ryy	8cc#
4r	2ryy	8cc#
.	.	8b
4r	.	8b
.	.	8a#
=56	=52	=56
8D#^' 8G#^' 8B^'	8d# 8g#	8cc#
8r	8ryy	8b
4r	2ryy	8b
.	.	8a#
4r	.	8a#
.	.	8g#
=57	=53	=57
8E^' 8G#^'	8c# 8g#	8b
8r	8ryy	8a#
4r	2ryy	8a#
.	.	8b
4r	.	8b
.	.	8a#
=58	=54	=58
2.r	2.r	8a#
.	.	8b
.	.	8b
.	.	8a#
.	.	8a#
.	.	8b
=59	=55	=59
2.r	2.r	8b
.	.	8a#
.	.	8a#
.	.	8b
.	.	8b
.	.	8a#
=60	=56	=60
2.r	2.r	8a#
.	.	8b
.	.	8b
.	.	8a#
.	.	8a#
.	.	8b
=61	=57	=61
8e	2.r	[2.g# [2.a#
8d#	.	.
8d#	.	.
8c#	.	.
8c#	.	.
8B	.	.
=62	=58	=62
8B	2.r	2.g#_ 2.a#_
8A#	.	.
8A#	.	.
8G#	.	.
8G#	.	.
8F#	.	.
=63	=59	=63
8F#	2.r	2.g#] 2.a#_
8E	.	.
8E	.	.
8D#	.	.
8D#	.	.
8C#	.	.
=64	=60	=64
*^	*	*
4r	2.D#	2.c# 2.f##	2a#]
4r	.	.	.
4DD#	.	.	4b
*v	*v	*	*
=65	=61	=65
4GG# 4D#'	4r	4B' 4g#'
4CC# 4C#'	4c# 4e	8g#
.	.	8b
4DD# 4D#'	4c# 4f##	8b
.	.	8a#
=66	=	=66
4GG#' 4G#'	4B	8a#
.	.	8g#
4CC#' 4C#'	4c# 4e	8g#
.	.	8b
4DD#' 4D#'	4c# 4f##	8b
.	.	8a#
=67	=62	=67
4EE' 4E'	4B	8a#
.	.	8g#
4BBB' 4BB'	4d#	8f#
.	.	8dd#
4CC#' 4C#'	4e 4a	8dd#
.	.	8cc#
=68	=63	=68
4DD#' 4D#'	4d# 4g#	8cc#
.	.	8b
4D#'	4d#	8d#
.	.	8b
4DD#' 4D#'	4c# 4f##	8b
.	.	8a#
=69	=64	=69
4GG#' 4D#'	4r	4B 4g#
4CC#' 4C#'	4c# 4e	8g#
.	.	8b
4DD#' 4D#'	4c# 4f##	8b
.	.	8a#
=70	=65	=70
4GG#' 4G#'	4B	8a#
.	.	8g#
4CC#' 4C#'	4c# 4e	8g#
.	.	8b
4DD#' 4D#'	4c# 4f##	8b
.	.	8a#
=71	=66	=71
4EE' 4E'	4B	8a#
.	.	8g#
4AAAn' 4AAn'	4c#	8e
.	.	8cc#
4BBB' 4BB'	4dn 4g#	8cc#
.	.	8b
=72	=67	=72
4CC#' 4C#'	4c# 4e	8b
.	.	8an
4DD#' 4D#'	4B	8d#
.	.	8g#
4DDD#' 4DD#'	4A# [4d#	8g#
.	.	8f##
=73	=68	=73
4GG#' 4G#'	4B 4d#]	4g#'
4r	4r	4r
4r	4r	4r
=74	=69	=74
2.DD# 2.D#	4r	[2.d#^
.	8G# 8B	.
.	8F## 8A#	.
.	8F## 8A#	.
.	8A# 8c#	.
=75	=70	=75
4GG# 4D#	4G# 4B	2d#]
4r	4r	.
4r	4r	4e
=76	=71	=76
2.DD# 2.D#	4r	[2.d#^
.	8G# 8B	.
.	8F## 8A#	.
.	8F## 8A#	.
.	8A# 8c#	.
=77	=72	=77
4GG# 4D#	4G# 4B	4d#]
4r	4r	4f#
4r	4r	4e
=78	=73	=78
2.DD# 2.D#	4r	[2.d#^
.	8G# 8B	.
.	8F## 8A#	.
.	8F## 8A#	.
.	8A# 8c#	.
=79	=74	=79
4GG# 4D#	4G# 4B	4d#]
4r	4r	4g#
4r	4r	4f#
=80	=75	=80
4r	4r	4e
4r	4r	2d#
4DD#' 4D#'	4D#'	.
=81	=76	=81
4GG#' 4G#'	4G#'	2.ryy
4r	4r	.
4r	4r	.
==	==	==
*-	*-	*-
